X: 14
T: Cutting a Slide
C:Phil Cunningham
M:C
L:1/8
K:D
FA, (3A,A,A, AA,FA,| EDCE DB,A,D| FA,(3A,A,A, FGAF| DBBA B2 Bc|
dcBA F2 AF| EDFD EDB,D| FA, (3A,A,A, AA,FA,| EDCE D3 G :||
|: FAce dB (3BBB| Aceg fdd=c| BGBd (3AAA FD| E^GBd cAAG|
FAce dB (3BBB| Aceg fdd=c| BGBd (3AAA FD| EDCE D4 :||

%%sep 2 1 500

